build/img/mail-icon.svg

<svg width="20" height="16" viewBox="0 0 20 16" fill="none" xmlns="http://www.w3.org/2000/svg">
<path d="M5.28924 0.907491C8.42388 0.635003 11.5763 0.635003 14.7109 0.907491L16.2211 1.03877C17.2265 1.12617 18.0876 1.72584 18.5337 2.58361C18.5908 2.69335 18.548 2.82621 18.4428 2.89132L12.1769 6.77024C10.833 7.60216 9.1385 7.61962 7.77778 6.81556L1.46995 3.0882C1.36804 3.02798 1.32126 2.90402 1.36719 2.79492C1.77535 1.82536 2.69298 1.13318 3.77901 1.03877L5.28924 0.907491Z" fill="black"/>
<path d="M1.36206 4.76676C1.20609 4.6746 1.00709 4.77377 0.988912 4.95402C0.735176 7.46965 0.796587 10.0091 1.17314 12.5132C1.37166 13.8333 2.44907 14.8454 3.77901 14.961L5.28924 15.0923C8.42388 15.3647 11.5763 15.3647 14.7109 15.0923L16.2211 14.961C17.5511 14.8454 18.6285 13.8333 18.827 12.5132C19.2145 9.93613 19.2683 7.32162 18.9882 4.73415C18.9686 4.55264 18.7662 4.45529 18.611 4.55139L12.9664 8.04564C11.1482 9.17118 8.85566 9.19479 7.01468 8.10695L1.36206 4.76676Z" fill="black"/>
</svg>

<svg width="20" height="16" fill="none" xmlns="http://www.w3.org/2000/svg"><path d="M5.29.907a54.397 54.397 0 019.42 0l1.511.132a2.888 2.888 0 012.313 1.545.235.235 0 01-.091.307l-6.266 3.88a4.25 4.25 0 01-4.4.045L1.47 3.088a.236.236 0 01-.103-.293A2.889 2.889 0 013.78 1.039L5.29.907z" fill="#000"/><path d="M1.362 4.767a.248.248 0 00-.373.187 30.351 30.351 0 00.184 7.56A2.888 2.888 0 003.78 14.96l1.51.131c3.135.273 6.287.273 9.422 0l1.51-.131a2.888 2.888 0 002.606-2.448 30.35 30.35 0 00.161-7.779.247.247 0 00-.377-.183l-5.645 3.495a5.75 5.75 0 01-5.951.061l-5.653-3.34z" fill="#000"/></svg>
